src/dsmComponents/Icons/location-settings-20px.svg

<?xml version="1.0" encoding="UTF-8"?>
<svg width="20px" height="20px" viewBox="0 0 20 20" version="1.1" xmlns="http://www.w3.org/2000/svg" xmlns:xlink="http://www.w3.org/1999/xlink">
    <!-- Generator: Sketch 59.1 (86144) - https://sketch.com -->
    <title>location-settings-20px</title>
    <desc>Created with Sketch.</desc>
    <defs>
        <path d="M15.625,10 L16.125,11.5 C16.375,11.5625 16.625,11.625 16.8125,11.75 L16.8125,11.75 L18.125,11.0625 L19,11.9375 L18.3125,13.25 C18.4375,13.4375 18.5,13.6875 18.5625,13.875 L18.5625,13.875 L20,14.375 L20,15.625 L18.5625,16.125 C18.5,16.375 18.4375,16.625 18.3125,16.8125 L18.3125,16.8125 L19,18.125 L18.125,19 L16.8125,18.3125 C16.5625,18.375 16.375,18.5 16.125,18.5625 L16.125,18.5625 L15.625,20 L14.375,20 L13.875,18.5625 C13.625,18.5 13.375,18.4375 13.1875,18.3125 L13.1875,18.3125 L11.875,19 L11,18.125 L11.6875,16.8125 C11.625,16.5625 11.5,16.375 11.4375,16.125 L11.4375,16.125 L10,15.625 L10,14.375 L11.4375,13.875 C11.5,13.6875 11.5625,13.4375 11.6875,13.25 L11.6875,13.25 L11,11.9375 L11.9375,11 L13.25,11.6875 C13.4375,11.5625 13.6875,11.5 13.875,11.4375 L13.875,11.4375 L14.375,10 L15.625,10 Z M7.5,0 C11.1866667,0 15,2.805 15,7.5 C15,7.77083333 14.9741667,8.05083333 14.9266667,8.33666667 C11.2791667,8.37666667 8.33333333,11.3425 8.33333333,15 C8.33333333,16.0541667 8.585,17.0475 9.02,17.9333333 C8.51,18.4941667 8.15166667,18.86 8.09166667,18.9208333 C7.935,19.0783333 7.7225,19.1666667 7.5,19.1666667 C7.2775,19.1666667 7.065,19.0783333 6.90833333,18.9208333 C6.62666667,18.6358333 0,11.9075 0,7.5 C0,2.805 3.81333333,0 7.5,0 Z M15,13.125 C13.9375,13.125 13.125,13.9375 13.125,15 C13.125,16.0625 13.9375,16.875 15,16.875 C16.0625,16.875 16.875,16.0625 16.875,15 C16.875,13.9375 16.0625,13.125 15,13.125 Z M7.5,5 C6.11916667,5 5,6.11916667 5,7.5 C5,8.88083333 6.11916667,10 7.5,10 C8.88083333,10 10,8.88083333 10,7.5 C10,6.11916667 8.88083333,5 7.5,5 Z" id="path-1"></path>
    </defs>
    <g id="Final" stroke="none" stroke-width="1" fill="none" fill-rule="evenodd">
        <g id="All-Nucleo-Icons" transform="translate(-463.000000, -4502.000000)">
            <g id="Solo/Nucleo/20px/location-settings" transform="translate(461.000000, 4500.000000)">
                <g transform="translate(2.000000, 2.000000)" id="map-engine">
                    <g>
                        <g id="Colour/Default-Colour">
                            <mask id="mask-2" fill="white">
                                <use xlink:href="#path-1"></use>
                            </mask>
                            <g id="Mask" fill-rule="nonzero"></g>
                            <g id="colour/neutral/chia" mask="url(#mask-2)" fill="#737373">
                                <g transform="translate(-22.000000, -22.000000)" id="Colour">
                                    <rect x="0" y="0" width="64" height="64"></rect>
                                </g>
                            </g>
                        </g>
                    </g>
                </g>
            </g>
        </g>
    </g>
</svg>

<svg width="20" height="20" xmlns="http://www.w3.org/2000/svg" xmlns:xlink="http://www.w3.org/1999/xlink"><defs><path d="M15.625 10l.5 1.5c.25.063.5.125.688.25l1.312-.688.875.876-.688 1.312c.125.188.188.438.25.625l1.438.5v1.25l-1.438.5c-.062.25-.125.5-.25.688L19 18.125l-.875.875-1.313-.688c-.25.063-.437.188-.687.25l-.5 1.438h-1.25l-.5-1.438c-.25-.062-.5-.125-.688-.25L11.876 19 11 18.125l.688-1.313c-.063-.25-.188-.437-.25-.687l-1.438-.5v-1.25l1.438-.5c.062-.188.124-.438.25-.625L11 11.937l.938-.937 1.312.688c.188-.126.438-.188.625-.25l.5-1.438h1.25zM7.5 0C11.187 0 15 2.805 15 7.5c0 .27-.026.55-.073.837A6.665 6.665 0 008.333 15c0 1.054.252 2.047.687 2.933-.51.561-.868.927-.928.988a.834.834 0 01-1.184 0C6.627 18.636 0 11.908 0 7.5 0 2.805 3.813 0 7.5 0zM15 13.125A1.842 1.842 0 0013.125 15c0 1.063.813 1.875 1.875 1.875A1.842 1.842 0 0016.875 15 1.842 1.842 0 0015 13.125zM7.5 5a2.5 2.5 0 100 5 2.5 2.5 0 000-5z" id="location-settings-20px_svg__a"/></defs><use fill="#737373" xlink:href="#location-settings-20px_svg__a" fill-rule="evenodd"/></svg>
